SVG-Logos/Security/logo-venafi-combo.svg

<svg width="145" height="32" viewBox="0 0 145 32" fill="none" xmlns="http://www.w3.org/2000/svg">
<g>
<path d="M81.8809 16.7876C81.7825 15.8066 81.3086 14.9025 80.5596 14.2668C79.8106 13.6311 78.8453 13.3137 77.8678 13.3816C76.8723 13.3226 75.8907 13.6388 75.1142 14.2684C74.3377 14.8981 73.8219 15.7962 73.6674 16.7876H81.8809ZM85.6265 19.4801H73.5872C73.7585 20.4969 74.3098 21.4091 75.1281 22.0299C75.9465 22.6507 76.9697 22.9329 77.9882 22.8187C78.7911 22.835 79.5867 22.6621 80.3114 22.3138C81.036 21.9655 81.6697 21.4515 82.1618 20.8128L84.7436 22.7783C83.9646 23.9069 82.9179 24.8218 81.6985 25.4401C80.4791 26.0584 79.1256 26.3605 77.7608 26.3189C75.6037 26.3189 73.535 25.4566 72.0097 23.9216C70.4844 22.3866 69.6275 20.3047 69.6275 18.1338C69.6275 15.963 70.4844 13.881 72.0097 12.346C73.535 10.811 75.6037 9.94871 77.7608 9.94871C78.8174 9.91377 79.8698 10.0999 80.8512 10.4955C81.8327 10.891 82.7219 11.4873 83.4625 12.2465C84.2031 13.0058 84.779 13.9115 85.1538 14.9064C85.5286 15.9012 85.6941 16.9636 85.6399 18.0261C85.6399 18.4569 85.6399 18.955 85.6399 19.5204" fill="#3d3e62"/>
<path d="M104.06 17.1914V25.915H100.221V17.4472C100.221 14.9567 98.7226 13.6239 97.0104 13.6239C96.4785 13.5937 95.9465 13.6781 95.4496 13.8713C94.9527 14.0646 94.5025 14.3622 94.1291 14.7445C93.7556 15.1267 93.4674 15.5847 93.2838 16.0879C93.1001 16.5911 93.0253 17.1279 93.0641 17.6626V25.9285H89.2249V10.3525H93.0641V12.8161C93.5247 11.9395 94.2168 11.2079 95.0642 10.702C95.9116 10.196 96.8813 9.93532 97.8665 9.94866C101.88 9.94866 104.06 12.6411 104.06 17.1914Z" fill="#3d3e62"/>
<path d="M119.899 18.1203C119.899 16.9192 119.428 15.7665 118.589 14.9122C117.75 14.0578 116.611 13.5707 115.417 13.5566C114.211 13.5566 113.054 14.0388 112.201 14.8972C111.348 15.7556 110.869 16.9199 110.869 18.1338C110.869 19.3477 111.348 20.5119 112.201 21.3703C113.054 22.2287 114.211 22.7109 115.417 22.7109C116.611 22.6932 117.748 22.2 118.581 21.3395C119.413 20.4789 119.873 19.3213 119.858 18.1203H119.899ZM119.858 10.3525H123.711V25.915H119.858V23.4783C119.282 24.3727 118.488 25.1035 117.551 25.6008C116.614 26.0981 115.566 26.3453 114.508 26.3188C110.374 26.3188 107.057 22.9533 107.057 18.1203C107.057 13.2873 110.24 9.94867 114.615 9.94867C115.623 9.91269 116.625 10.1287 117.531 10.5773C118.437 11.026 119.218 11.6934 119.805 12.5199L119.858 10.3525Z" fill="#3d3e62"/>
<path d="M139.59 5.31758C139.56 4.815 139.681 4.31503 139.937 3.88236C140.193 3.44969 140.572 3.10415 141.024 2.89035C141.477 2.67655 141.984 2.60436 142.478 2.68304C142.972 2.76172 143.431 2.98768 143.796 3.33175C144.162 3.67583 144.416 4.12223 144.526 4.61324C144.637 5.10425 144.599 5.61728 144.417 6.08618C144.234 6.55507 143.917 6.95824 143.505 7.24359C143.092 7.52894 142.605 7.6834 142.104 7.68697C141.784 7.69956 141.465 7.64806 141.164 7.53545C140.864 7.42284 140.589 7.25134 140.355 7.03094C140.121 6.81055 139.933 6.54561 139.802 6.2515C139.67 5.95738 139.598 5.63995 139.59 5.31758ZM144.031 10.3525V25.915H140.178V13.4219H133.664V25.915H129.811V13.4219H126.868V10.3525H129.811V10.0967C129.811 5.64066 131.938 2.93472 136.245 2.93472H137.235V6.56957H136.673C136.257 6.51096 135.834 6.55177 135.436 6.68863C135.039 6.8255 134.679 7.05459 134.386 7.35739C134.093 7.6602 133.875 8.02818 133.749 8.43157C133.624 8.83497 133.594 9.26243 133.664 9.67937V10.3929L144.031 10.3525Z" fill="#3d3e62"/>
<path d="M66.1629 4.03868C64.5943 9.54684 62.0965 14.7427 58.7788 19.3993C55.4799 14.7389 53.0003 9.54327 51.4481 4.03868H47.1675C48.9474 10.7991 52.0189 17.1459 56.2104 22.7244C57.0219 23.8283 57.878 24.8919 58.7788 25.915C59.6706 24.8919 60.5267 23.8283 61.3472 22.7244C65.5386 17.1459 68.6101 10.7991 70.39 4.03868H66.1629Z" fill="#3d3e62"/>
<path d="M10.1532 6.4485C11.9533 11.44 14.6112 16.0743 18.0055 20.1398L19.1559 21.486L20.3198 20.1398C23.7195 16.0734 26.3861 11.4398 28.1988 6.4485H24.2927C23.0092 9.67427 21.2945 12.7088 19.1961 15.4683C17.0968 12.7117 15.3862 9.6764 14.1128 6.4485H10.1532Z" fill="#FF6333"/>
<path d="M26.2592 6.11097e-05C26.1655 0.228921 25.2826 2.85412 24.8144 3.91765H32.319C29.6902 11.13 25.8335 17.8265 20.9217 23.7072L19.2496 25.6997L17.5775 23.7072C12.6616 17.8144 8.80474 11.1038 6.1802 3.87722H13.3235C12.8553 2.8137 11.9858 0.188577 11.8788 -0.0402832H0C3.86336 10.5533 9.53074 20.3887 16.7481 29.0249L19.1961 31.9462L21.6575 29.0249C28.868 20.3862 34.5306 10.5513 38.3921 -0.0402832L26.2592 6.11097e-05Z" fill="#FF6333"/>
</g>
</svg>

<svg xmlns="http://www.w3.org/2000/svg" fill="none" viewBox="0 0 145 32"><path fill="#3d3e62" d="M81.88 16.788a3.804 3.804 0 0 0-1.32-2.521 3.757 3.757 0 0 0-2.692-.885 3.996 3.996 0 0 0-2.754.886 4.045 4.045 0 0 0-1.447 2.52h8.214Zm3.746 2.692H73.587a4.043 4.043 0 0 0 1.541 2.55c.819.62 1.842.903 2.86.789a5.123 5.123 0 0 0 2.323-.505 5.157 5.157 0 0 0 1.85-1.501l2.583 1.965a8.216 8.216 0 0 1-3.046 2.662 8.156 8.156 0 0 1-3.937.879 8.107 8.107 0 0 1-5.751-2.397 8.212 8.212 0 0 1-2.383-5.788c0-2.171.857-4.253 2.383-5.788a8.107 8.107 0 0 1 5.75-2.397 7.594 7.594 0 0 1 3.091.546c.982.396 1.87.992 2.612 1.752a7.693 7.693 0 0 1 1.69 2.66c.376.994.541 2.057.487 3.12v1.493M104.06 17.191v8.724h-3.839v-8.468c0-2.49-1.498-3.823-3.21-3.823a3.724 3.724 0 0 0-2.882 1.12 3.772 3.772 0 0 0-1.065 2.919v8.265h-3.84V10.352h3.84v2.464a5.37 5.37 0 0 1 2-2.114 5.325 5.325 0 0 1 2.803-.753c4.013 0 6.193 2.692 6.193 7.242ZM119.899 18.12a4.58 4.58 0 0 0-1.31-3.208 4.52 4.52 0 0 0-3.172-1.355 4.534 4.534 0 0 0-3.216 1.34 4.592 4.592 0 0 0-1.332 3.237c0 1.214.479 2.378 1.332 3.236a4.534 4.534 0 0 0 3.216 1.34 4.495 4.495 0 0 0 3.164-1.37 4.55 4.55 0 0 0 1.277-3.22h.041Zm-.041-7.768h3.853v15.563h-3.853v-2.437a6.205 6.205 0 0 1-2.307 2.123 6.162 6.162 0 0 1-3.043.718c-4.134 0-7.451-3.366-7.451-8.199s3.183-8.171 7.558-8.171a6.083 6.083 0 0 1 2.916.628 6.123 6.123 0 0 1 2.274 1.943l.053-2.168ZM139.59 5.318a2.524 2.524 0 0 1 1.434-2.428 2.49 2.49 0 0 1 2.772.442 2.53 2.53 0 0 1-.291 3.912c-.413.285-.9.44-1.401.443a2.41 2.41 0 0 1-1.749-.656 2.427 2.427 0 0 1-.553-.78 2.428 2.428 0 0 1-.212-.933Zm4.441 5.034v15.563h-3.853V13.422h-6.514v12.493h-3.853V13.422h-2.943v-3.07h2.943v-.255c0-4.456 2.127-7.162 6.434-7.162h.99V6.57h-.562a2.66 2.66 0 0 0-2.287.787 2.703 2.703 0 0 0-.722 2.322v.714l10.367-.04ZM66.163 4.039a50.137 50.137 0 0 1-7.384 15.36 50.139 50.139 0 0 1-7.33-15.36h-4.282a53.99 53.99 0 0 0 9.043 18.685 46.536 46.536 0 0 0 2.569 3.191 52.673 52.673 0 0 0 2.568-3.19A53.991 53.991 0 0 0 70.39 4.038h-4.227Z"/><path fill="#FF6333" d="M10.153 6.449a45.386 45.386 0 0 0 7.853 13.69l1.15 1.347 1.164-1.346c3.4-4.067 6.066-8.7 7.879-13.692h-3.906a38.284 38.284 0 0 1-5.097 9.02 37.756 37.756 0 0 1-5.083-9.02h-3.96Z"/><path fill="#FF6333" d="M26.26 0c-.095.229-.977 2.854-1.446 3.918h7.505a66.271 66.271 0 0 1-11.397 19.79L19.25 25.7l-1.672-1.993A66.268 66.268 0 0 1 6.18 3.877h7.143C12.855 2.814 11.986.19 11.88-.04H0a97.32 97.32 0 0 0 16.748 29.065l2.448 2.921 2.461-2.921A97.443 97.443 0 0 0 38.392-.04L26.26 0Z"/></svg>
